X:582
%%etbk:tnset id:316,pos:2,rep:3x,ant:
%%etbk:pldat 2016-05-19T19:03,2016-05-18T16:56,2016-05-17T16:27,2016-05-16T14:55,2016-05-15T15:34,2016-05-14T16:26,2016-05-12T18:21,2016-05-11T17:10,2016-05-10T18:22,2016-02-04T19:01,2016-02-03T16:05,2016-02-02T16:53,2016-01-30T13:22,2016-01-26T16:24,2016-01-25T18:14,2016-01-20T16:21,2016-01-17T13:06,2015-11-20T16:49,2015-11-18T16:31,2015-11-17T16:33,2015-11-15T14:42,2015-11-14T15:26,2015-11-11T15:59,2015-11-10T17:30,2015-11-08T13:58,2015-09-10T15:44,2015-09-09T15:54,2015-09-08T18:17,2015-09-03T15:20,2015-09-02T15:22,2015-09-01T15:35,2015-08-31T18:05,2015-08-30T13:56,2015-08-26T15:14,2015-08-06T16:44,2015-08-05T15:18,2015-08-04T15:29,2015-08-03T17:36,2015-08-02T11:17,2015-08-01T15:09,2015-07-31T17:23,2015-07-29T15:36,2015-07-24T17:38,2015-07-20T18:16,2015-06-26T16:33,2015-06-18T18:31,2015-06-17T15:30,2015-06-16T15:14,2015-05-07T18:01,2015-04-16T17:59,2015-04-15T15:21,2015-04-13T18:02,2015-04-12T09:51,2015-04-11T13:21,2015-03-19T17:42,2015-03-16T18:06,2015-03-15T13:20,2015-03-11T15:16,2015-03-05T18:17,2015-02-22T14:27,2015-02-21T15:35,2015-02-18T16:41,2015-02-16T18:41,2015-02-14T13:26,2015-02-11T16:49,2015-02-10T15:23,2015-02-04T16:01,2015-02-01T13:43,2015-01-27T16:43,2015-01-21T16:49,2015-01-14T17:38,2015-01-13T16:02,2015-01-10T14:26,2015-01-07T15:40,2015-01-05T18:32,2014-12-30T17:07,2014-12-20T14:05,2014-12-15T15:56,2014-11-26T16:00,2014-11-17T18:42,2014-11-12T18:51,2014-10-16T18:19,2014-10-15T18:03,2014-10-13T18:22,2014-10-12T13:43,2014-10-10T15:07,2014-09-16T17:33,2014-09-13T12:42,2014-09-10T16:11,2014-08-14T18:00,2014-08-13T19:44,2014-08-12T17:56,2014-08-11T18:00,2014-08-10T12:44,2014-08-06T18:39,2014-08-04T19:04,2014-08-03T15:38,2014-07-31T18:25,2014-07-29T17:56,2014-07-28T18:42,2014-07-26T16:09,2014-07-25T18:58,2014-07-24T19:10,2014-07-22T18:14,2014-07-20T14:43,2014-07-18T09:25,2014-07-14T16:51,2014-07-04T10:36,2014-07-03T10:01,2014-07-02T11:32,2014-06-30T10:44,2014-06-25T16:46,2014-06-24T18:58,2014-06-20T15:10,2014-06-19T18:01,2014-06-17T17:58,2014-06-15T13:36,2014-06-13T15:46,2014-06-12T18:22,2014-06-11T15:59,2014-06-10T18:35,2014-06-09T13:40,2014-06-07T15:29,2014-06-05T18:11,2014-06-04T15:49,2014-06-03T16:06,2014-06-02T18:01,2014-06-01T10:33,2014-05-31T16:30,2014-05-28T09:26,2014-05-23T16:16,2014-05-21T18:29,2014-05-20T15:32,2014-05-17T20:03,2014-05-17T15:05,2014-05-16T17:10
T: Waterman's
Z: Piano Box Version by Martin Fleischmann
H: Created 2014-05-16 /  Last Modified 2014-05-28
R: jig
M: 6/8
L: 1/8
K: Emin
M:7/8
P:A
|:!1!Ez!4!B2 BAG|!roll!!3!A2GA !roll!!4!B2E|!2!GA!roll!A2 AGA|!4!Bc BG !3!A!1!G!2!F|
!1!Ez !3!(AB) !4!BAG|!roll!!3!A2GA !roll!!4!B2E|!2!GA!roll!A2 ABG|1!3!AB !1!G!2!F !roll!!1!E2!2!D:|2AB GF !1!Ez !1!B||
P:B
!4!g2!2!ez efg|!roll!!3!f2 !1!Bz !3!BAB|(B!4!c) !2!Az !2!ABG|!2!AB !4!c!1!d eaf|
!4!g2!2!ez !2!efg|!roll!!3!f2 !1!B!2!A !3!BdB|!4!c2A2 ABG|AB GF Ez !1!B|
!4!g2!2!e!1!B !2!efg|!4!(ga) gf !2!efd|!4!(ab) ag !2!fga|!3!gz !3!f!2!e !3!f!2!d!1!B|
!4!g2!2!ez efg|!roll!!3!f2 !1!B!2!A !3!BdB|!4!c2A2 ABG|AB GF !roll!E2D||


